packages/amis-ui/src/icons/volume.svg

<svg xmlns="http://www.w3.org/2000/svg" 
    xmlns:xlink="http://www.w3.org/1999/xlink" viewBox="0 0 1024 1024" version="1.1" p-id="1463">
    <path d="M536.319574 5.11991a63.99888 63.99888 0 0 0-69.758779 13.439765L229.764939 255.99552H64.00784a63.99888 63.99888 0 0 0-63.99888 63.99888v383.99328a63.99888 63.99888 0 0 0 63.99888 63.99888h165.757099l236.795856 237.435845A63.99888 63.99888 0 0 0 512 1023.98208a53.759059 53.759059 0 0 0 24.319574-5.11991A63.99888 63.99888 0 0 0 575.99888 959.9832V63.99888a63.99888 63.99888 0 0 0-39.679306-58.87897zM192.0056 639.9888H128.00672V383.99328h63.99888z m255.99552 165.757099l-127.99776-127.99776V346.233941l127.99776-127.99776zM879.353571 148.477402a63.99888 63.99888 0 0 0-94.718342 87.038476 402.552955 402.552955 0 0 1 0 552.950324A63.99888 63.99888 0 0 0 831.9944 895.98432a63.99888 63.99888 0 0 0 46.719183-20.479641 531.830693 531.830693 0 0 0 0-727.027277z" fill="currentColor" p-id="3605" />
    <path d="M751.9958 277.11515a63.99888 63.99888 0 0 0-95.99832 85.7585A218.236181 218.236181 0 0 1 703.99664 511.99104a221.436125 221.436125 0 0 1-47.359171 149.117391 63.99888 63.99888 0 0 0 4.479921 90.23842A63.99888 63.99888 0 0 0 703.99664 767.98656a63.99888 63.99888 0 0 0 47.359171-21.11963A349.433885 349.433885 0 0 0 831.9944 511.99104a353.273818 353.273818 0 0 0-79.9986-234.87589z" fill="currentColor" p-id="3606" />
</svg>

<svg xmlns="http://www.w3.org/2000/svg" viewBox="0 0 1024 1024"><path d="M536.32 5.12a63.999 63.999 0 0 0-69.76 13.44L229.766 255.996H64.008A63.999 63.999 0 0 0 .009 319.994v383.994a63.999 63.999 0 0 0 63.999 63.999h165.757l236.796 237.435a63.999 63.999 0 0 0 45.439 18.56 53.76 53.76 0 0 0 24.32-5.12 63.999 63.999 0 0 0 39.679-58.879V64a63.999 63.999 0 0 0-39.68-58.88zM192.006 639.989h-64V383.993h64zM448 805.746 320.003 677.748V346.234l127.998-127.998zm431.353-657.269a63.999 63.999 0 0 0-94.719 87.039 402.553 402.553 0 0 1 0 552.95 63.999 63.999 0 0 0 47.36 107.518 63.999 63.999 0 0 0 46.719-20.48 531.83 531.83 0 0 0 0-727.027z" fill="currentColor"/><path d="M751.996 277.115a63.999 63.999 0 0 0-95.999 85.759 218.236 218.236 0 0 1 48 149.117 221.436 221.436 0 0 1-47.36 149.117 63.999 63.999 0 0 0 4.48 90.239 63.999 63.999 0 0 0 42.88 16.64 63.999 63.999 0 0 0 47.359-21.12 349.434 349.434 0 0 0 80.638-234.876 353.274 353.274 0 0 0-79.998-234.876z" fill="currentColor"/></svg>
